school/img/country/AI.svg

<svg width="13" height="12" viewBox="0 0 13 12" fill="none" xmlns="http://www.w3.org/2000/svg">
<rect width="13" height="12" rx="2" fill="white"/>
<mask id="mask0" mask-type="alpha" maskUnits="userSpaceOnUse" x="0" y="0" width="13" height="12">
<rect width="13" height="12" rx="2" fill="white"/>
</mask>
<g mask="url(#mask0)">
<rect width="13" height="12" fill="#0A17A7"/>
<path fill-rule="evenodd" clip-rule="evenodd" d="M8.04761 6C8.04761 4.8 8.04761 4 8.04761 4L8.66666 4.4L9.2857 4L9.90475 4.4L10.5238 4C10.5238 4 10.5238 4.8 10.5238 6C10.5238 7.2 9.2857 8 9.2857 8C9.2857 8 8.04761 7.2 8.04761 6Z" fill="white"/>
<mask id="mask1" mask-type="alpha" maskUnits="userSpaceOnUse" x="8" y="4" width="3" height="4">
<path fill-rule="evenodd" clip-rule="evenodd" d="M8.04761 6C8.04761 4.8 8.04761 4 8.04761 4L8.66666 4.4L9.2857 4L9.90475 4.4L10.5238 4C10.5238 4 10.5238 4.8 10.5238 6C10.5238 7.2 9.2857 8 9.2857 8C9.2857 8 8.04761 7.2 8.04761 6Z" fill="white"/>
</mask>
<g mask="url(#mask1)">
<rect x="8.04761" y="7.20001" width="2.47619" height="0.8" fill="#9ACCFF"/>
<path fill-rule="evenodd" clip-rule="evenodd" d="M9.2857 5.59999C9.45664 5.59999 9.59522 5.4209 9.59522 5.19999C9.59522 4.97907 9.45664 4.79999 9.2857 4.79999C9.11475 4.79999 8.97618 4.97907 8.97618 5.19999C8.97618 5.4209 9.11475 5.59999 9.2857 5.59999ZM8.66664 6.4C8.83759 6.4 8.97617 6.22091 8.97617 6C8.97617 5.77908 8.83759 5.6 8.66664 5.6C8.4957 5.6 8.35712 5.77908 8.35712 6C8.35712 6.22091 8.4957 6.4 8.66664 6.4ZM10.2142 6C10.2142 6.22091 10.0757 6.4 9.90473 6.4C9.73378 6.4 9.5952 6.22091 9.5952 6C9.5952 5.77908 9.73378 5.6 9.90473 5.6C10.0757 5.6 10.2142 5.77908 10.2142 6Z" fill="url(#paint0_linear)"/>
</g>
<path d="M0 -0.333333H-0.75L-0.247423 0.223368L1.83333 2.5282V3.05406L-0.226093 4.95507L-0.333333 5.05406V5.2V5.6V6.29771L0.209446 5.85931L2.59399 3.93333H2.96491L5.00214 5.81385C5.08536 5.89067 5.19447 5.93333 5.30773 5.93333C5.69811 5.93333 5.90374 5.47067 5.64214 5.1809L3.7381 3.07179V2.54594L5.69028 0.743925C5.827 0.617721 5.90476 0.440121 5.90476 0.254056V0V-0.697712L5.36198 -0.259314L2.97744 1.66667H2.60652L0.535617 -0.244934L0.439852 -0.333333H0.309524H0Z" fill="#FF2E3B" stroke="white" stroke-width="0.666667"/>
<path fill-rule="evenodd" clip-rule="evenodd" d="M0 2V3.6H2.16667V5.38095C2.16667 5.72284 2.44382 6 2.78571 6V6C3.1276 6 3.40476 5.72284 3.40476 5.38095V3.6H5.21429C5.58247 3.6 5.88095 3.30152 5.88095 2.93333V2.66667C5.88095 2.29848 5.58248 2 5.21429 2H3.40476V0H2.16667V2H0Z" fill="white"/>
<path fill-rule="evenodd" clip-rule="evenodd" d="M0 2.4H2.47619V2V0H3.09524V2V2.4H5.57143V3.2H3.09524V3.6V5.6H2.47619V3.6V3.2H0V2.4Z" fill="#FF2E3B"/>
</g>
<defs>
<linearGradient id="paint0_linear" x1="8.35712" y1="4.79999" x2="8.35712" y2="6.39999" gradientUnits="userSpaceOnUse">
<stop stop-color="#FFA51B"/>
<stop offset="1" stop-color="#FF9A00"/>
</linearGradient>
</defs>
</svg>

<svg width="13" height="12" fill="none" xmlns="http://www.w3.org/2000/svg"><rect width="13" height="12" rx="2" fill="#fff"/><mask id="a" maskUnits="userSpaceOnUse" x="0" y="0" width="13" height="12"><rect width="13" height="12" rx="2" fill="#fff"/></mask><g mask="url(#a)"><path fill="#0A17A7" d="M0 0h13v12H0z"/><path fill-rule="evenodd" clip-rule="evenodd" d="M8.048 6V4l.619.4.619-.4.619.4.619-.4v2c0 1.2-1.238 2-1.238 2s-1.238-.8-1.238-2z" fill="#fff"/><mask id="b" maskUnits="userSpaceOnUse" x="8" y="4" width="3" height="4"><path fill-rule="evenodd" clip-rule="evenodd" d="M8.048 6V4l.619.4.619-.4.619.4.619-.4v2c0 1.2-1.238 2-1.238 2s-1.238-.8-1.238-2z" fill="#fff"/></mask><g mask="url(#b)"><path fill="#9ACCFF" d="M8.048 7.2h2.476V8H8.048z"/><path fill-rule="evenodd" clip-rule="evenodd" d="M9.286 5.6c.17 0 .31-.18.31-.4 0-.22-.14-.4-.31-.4-.171 0-.31.18-.31.4 0 .22.139.4.31.4zm-.62.8c.172 0 .31-.18.31-.4 0-.22-.138-.4-.31-.4-.17 0-.309.18-.309.4 0 .22.139.4.31.4zm1.548-.4c0 .22-.138.4-.31.4-.17 0-.309-.18-.309-.4 0-.22.139-.4.31-.4.17 0 .31.18.31.4z" fill="url(#paint0_linear)"/></g><path d="M0-.333h-.75l.503.556 2.08 2.305v.526l-2.06 1.901-.106.1v1.242l.542-.439 2.385-1.926h.37l2.038 1.88a.45.45 0 00.64-.632L3.738 3.07v-.525L5.69.744a.667.667 0 00.215-.49v-.952l-.543.439-2.385 1.926h-.37L.536-.245.44-.333H0z" fill="#FF2E3B" stroke="#fff" stroke-width=".667"/><path fill-rule="evenodd" clip-rule="evenodd" d="M0 2v1.6h2.167v1.781a.62.62 0 001.238 0V3.6h1.81a.667.667 0 00.666-.667v-.266A.667.667 0 005.214 2h-1.81V0H2.168v2H0z" fill="#fff"/><path fill-rule="evenodd" clip-rule="evenodd" d="M0 2.4h2.476V0h.62v2.4H5.57v.8H3.095v2.4h-.619V3.2H0v-.8z" fill="#FF2E3B"/></g><defs><linearGradient id="paint0_linear" x1="8.357" y1="4.8" x2="8.357" y2="6.4" gradientUnits="userSpaceOnUse"><stop stop-color="#FFA51B"/><stop offset="1" stop-color="#FF9A00"/></linearGradient></defs></svg>
